X:1
T:Title
%%score ( 1 2 ) { 3 | 4 }
L:1/8
Q:1/4=100
M:6/8
K:G
V:1 treble nm="Grand Piano, Soprano"
V:2 treble 
V:3 treble nm="Choir Pad, A Little Talk with Jesus"
V:4 bass 
V:1
 [DG] [GB]2 [Gc] [GB]2 | [DA] [DG]2- [DG] D2 | [DG] [CA]2 [CA]FE | [CD] [B,D]2- [B,D]2- [B,D]/ z/ | %4
w: By~William~Howard~Doane * * *||||
 [DG] [GB]2 [GB] [Gc]2 | [Gc] [Gd]2- [Gd] [GB]2 | [EG] [DF]2 [DA]AE | [^CF] D2- D2- D/ z/ | %8
w: ||||
 D [Dc]2 [Dc] [CE]2 | [DF] [CG]2- [CG] [B,D]2 | [DG] [GB]2 [GB]dc | [GB] [FA]2- [FA]2- [FA]/ z/ | %12
w: ||||
 [Fd]/[Ac]/[GB][GB] [GB][GB][DA] | [DG] [EG]2- [EG] [CE]2 | [CE]/[CE]/[B,D][DG]- [DG] [DF]2 | %15
w: |||
 [DA] [DG]2- [DG]2- [DG]/ z/ | G[GB][GB]- [GB] [Gc]2 | [GB] [GB]2- [GB] [DG]2 | %18
w: |||
 [GB][Gd][Gd]- [Gd] [Ge]2 | [Gd] [Fd]2- [Fd] [FA]2 | [Fd]/[Ac]/[GB][GB] [GB][GB][DA] | %21
w: |||
 [DG] [EG]2- [EG] [CE]2 | [CE]/[CE]/[B,D][DG]- [DG] [DF]2 | [DA] [DG]2- [DG]3- | [DG]3 z3 |] %25
w: ||||
V:2
 x6 | x6 | z3 z C2 | x6 | x6 | x6 | z3 z ^C2 | x6 | x6 | x6 | z3 z G2 | x6 | x6 | x6 | x6 | x6 | %16
 x6 | x6 | x6 | x6 | x6 | x6 | x6 | x6 | x6 |] %25
V:3
 B, D2 E D2 | C[K:bass] B,2- B, B,2 | G, F,2 F,A,G, | F, G,2- G,2- G,/ z/ | B,[K:treble] D2 D E2 | %5
 E B,2- B, D2 | B, A,2 F, E,2 | G, F,2- F,2- F,/ z/ | F, F,2 F, G,2 | A, G,2- G, G,2 | %10
 B,[K:treble] D2 DB,E | D D2- D2- D/ z/ | A,/D/DD DDC | B, C2- C[K:bass] G,2 | G,/G,/G,B,- B, A,2 | %15
 C B,2- B,2- B,/ z/ | B,[K:treble]DD- D E2 | D D2- D[K:bass] B,2 | DB,B,- B, C2 | %19
 B, A,2- A,[K:treble] D2 | A,/D/DD DDC | B, C2- C[K:bass] G,2 | G,/G,/G,B,- B, A,2 | C B,2- B,3- | %24
 B,3 z3 |] %25
V:4
 G, G,2 G, G,2 | G, G,2- G, G,2 | B,, D,2 D, D,2 | D, G,,2- G,,2- G,,/ z/ | G, G,2 G, G,2 | %5
 G, G,2- G, G,2 | .G,3 A,, A,,2 | A,, D,2- D,2- D,/ z/ | D, D,2 D, D,2 | D, G,,2- G,, G,,2 | %10
 [G,,G,] G,2 G, G,2 | G, D,2- D,2- D,/ z/ | D,/D,/G,G, G, G,2 | G, C,2- C, C,2 | %14
 C,/C,/D,D,- D, D,2 | D, G,2- G,2- G,/ z/ | G,G,G,- G, G,2 | G, G,2- G, G,2 | G,G,G,- G, G,2 | %19
 G, D,2- D, E,2 | D,/D,/G,G, G,G,G, | G, C,2- C, C,2 | C,/C,/D,D,- D, D,2 | D, G,2- G,3- | %24
 G,3 z3 |] %25

